X:1
%
T:Miss Eliza Forsyth
M:C
L:1/8
S:Glen Collection, vol. 2  (1895)
Z:AK/Fiddler’s Companion
K:G
g|dB GA/B/ AFAB|cedB GABg|dB GA/B/ AFAB|cedB G2 Gg|
dB GA/B/ AFAB|cedB GABg|dBGD EFGA|BA/G/ AG/F/ G2G||
d|gage dBGg|edeg abaf|gage dBGB|ce d/c/B/A/ G2 Gd|
gage dBGg|edeg abag|ba/g/ ag/f/ gf/e/ dB|cedB G [B,G]||

